src/components/LinkDropdown/icon-leaderboard.svg

<?xml version="1.0" encoding="UTF-8"?>
<svg width="16" height="16" viewBox="0 0 24 24" version="1.1" xmlns="http://www.w3.org/2000/svg"
  xmlns:xlink="http://www.w3.org/1999/xlink">
  <title>icon/ LEADERBOARD</title>
  <g id="icon/-LEADERBOARD" stroke="none" stroke-width="1" fill="none" fill-rule="evenodd">
    <path
      d="M5.7180574,7 C6.27543042,7 6.61014303,7.06463599 6.96002171,7.25175315 C7.29725315,7.4321065 7.5678935,7.70274685 7.74824685,8.03997829 C7.93536401,8.38985697 8,8.72456958 8,9.2819426 L8,19.7180574 C8,20.2754304 7.93536401,20.610143 7.74824685,20.9600217 C7.5678935,21.2972531 7.29725315,21.5678935 6.96002171,21.7482468 C6.61014303,21.935364 6.27543042,22 5.7180574,22 L4.2819426,22 C3.72456958,22 3.38985697,21.935364 3.03997829,21.7482468 C2.70274685,21.5678935 2.4321065,21.2972531 2.25175315,20.9600217 C2.06463599,20.610143 2,20.2754304 2,19.7180574 L2,9.2819426 C2,8.72456958 2.06463599,8.38985697 2.25175315,8.03997829 C2.4321065,7.70274685 2.70274685,7.4321065 3.03997829,7.25175315 C3.38985697,7.06463599 3.72456958,7 4.2819426,7 L5.7180574,7 Z M5.86961855,9.00085939 L4.13038145,9.00085939 C4.07281184,9.00173576 4.03985901,9.00330758 4.01937432,9.00568942 L4.007,9.007 L4.00568942,9.01937432 C4.00330758,9.03985901 4.00173576,9.07281184 4.00085939,9.13038145 L4.00085939,19.8696186 C4.00173576,19.9271882 4.00330758,19.960141 4.00568942,19.9806257 L4.007,19.992 L4.01937432,19.9943106 C4.03985901,19.9966924 4.07281184,19.9982642 4.13038145,19.9991406 L4.2819426,20 L5.7180574,20 C5.87770965,20 5.94648452,19.9982803 5.98062568,19.9943106 L5.992,19.992 L5.99431058,19.9806257 C5.99748637,19.9533128 5.99922212,19.9038343 5.99978939,19.8033934 L6,19.7180574 L6,9.2819426 C6,9.12229035 5.99828031,9.05351548 5.99431058,9.01937432 L5.992,9.007 L5.98062568,9.00568942 C5.96014099,9.00330758 5.92718816,9.00173576 5.86961855,9.00085939 Z M19.7180574,13 C20.2754304,13 20.610143,13.064636 20.9600217,13.2517532 C21.2972531,13.4321065 21.5678935,13.7027469 21.7482468,14.0399783 C21.935364,14.389857 22,14.7245696 22,15.2819426 L22,19.7180574 C22,20.2754304 21.935364,20.610143 21.7482468,20.9600217 C21.5678935,21.2972531 21.2972531,21.5678935 20.9600217,21.7482468 C20.610143,21.935364 20.2754304,22 19.7180574,22 L18.2819426,22 C17.7245696,22 17.389857,21.935364 17.0399783,21.7482468 C16.7027469,21.5678935 16.4321065,21.2972531 16.2517532,20.9600217 C16.064636,20.610143 16,20.2754304 16,19.7180574 L16,15.2819426 C16,14.7245696 16.064636,14.389857 16.2517532,14.0399783 C16.4321065,13.7027469 16.7027469,13.4321065 17.0399783,13.2517532 C17.389857,13.064636 17.7245696,13 18.2819426,13 L19.7180574,13 Z M19.8696186,15.0008594 L18.1303814,15.0008594 C18.0728118,15.0017358 18.039859,15.0033076 18.0193743,15.0056894 L18.007,15.007 L18.0056894,15.0193743 C18.0033076,15.039859 18.0017358,15.0728118 18.0008594,15.1303814 L18.0008594,19.8696186 C18.0017358,19.9271882 18.0033076,19.960141 18.0056894,19.9806257 L18.007,19.992 L18.0193743,19.9943106 C18.0466872,19.9974864 18.0961657,19.9992221 18.1966066,19.9997894 L18.2819426,20 L19.7180574,20 C19.8777097,20 19.9464845,19.9982803 19.9806257,19.9943106 L19.992,19.992 L19.9943106,19.9806257 C19.9974864,19.9533128 19.9992221,19.9038343 19.9997894,19.8033934 L20,19.7180574 L20,15.2819426 C20,15.1222903 19.9982803,15.0535155 19.9943106,15.0193743 L19.992,15.007 L19.9806257,15.0056894 C19.960141,15.0033076 19.9271882,15.0017358 19.8696186,15.0008594 Z M12.7180574,3 C13.2754304,3 13.610143,3.06463599 13.9600217,3.25175315 C14.2972531,3.4321065 14.5678935,3.70274685 14.7482468,4.03997829 C14.935364,4.38985697 15,4.72456958 15,5.2819426 L15,19.7180574 C15,20.2754304 14.935364,20.610143 14.7482468,20.9600217 C14.5678935,21.2972531 14.2972531,21.5678935 13.9600217,21.7482468 C13.610143,21.935364 13.2754304,22 12.7180574,22 L11.2819426,22 C10.7245696,22 10.389857,21.935364 10.0399783,21.7482468 C9.70274685,21.5678935 9.4321065,21.2972531 9.25175315,20.9600217 C9.06463599,20.610143 9,20.2754304 9,19.7180574 L9,5.2819426 C9,4.72456958 9.06463599,4.38985697 9.25175315,4.03997829 C9.4321065,3.70274685 9.70274685,3.4321065 10.0399783,3.25175315 C10.389857,3.06463599 10.7245696,3 11.2819426,3 L12.7180574,3 Z M11.2819426,5 C11.1222903,5 11.0535155,5.00171969 11.0193743,5.00568942 L11.007,5.007 L11.0056894,5.01937432 C11.0033076,5.03985901 11.0017358,5.07281184 11.0008594,5.13038145 L11.0008594,19.8696186 C11.0017358,19.9271882 11.0033076,19.960141 11.0056894,19.9806257 L11.007,19.992 L11.0193743,19.9943106 C11.0466872,19.9974864 11.0961657,19.9992221 11.1966066,19.9997894 L11.2819426,20 L12.7180574,20 C12.8777097,20 12.9464845,19.9982803 12.9806257,19.9943106 L12.992,19.992 L12.9943106,19.9806257 C12.9974864,19.9533128 12.9992221,19.9038343 12.9997894,19.8033934 L13,19.7180574 L13,5.2819426 C13,5.12229035 12.9982803,5.05351548 12.9943106,5.01937432 L12.992,5.007 L12.9806257,5.00568942 C12.960141,5.00330758 12.9271882,5.00173576 12.8696186,5.00085939 L12.7180574,5 L11.2819426,5 Z"
      id="Combined-Shape" fill="#FFF" fill-rule="nonzero" opacity=".5"></path>
  </g>
</svg>

<svg width="24" height="24" viewBox="0 0 24 24" xmlns="http://www.w3.org/2000/svg">
    <path d="M5.718 7c.557 0 .892.065 1.242.252.337.18.608.45.788.788.187.35.252.685.252 1.242v10.436c0 .557-.065.892-.252 1.242-.18.337-.45.608-.788.788-.35.187-.685.252-1.242.252H4.282c-.557 0-.892-.065-1.242-.252a1.909 1.909 0 0 1-.788-.788C2.065 20.61 2 20.275 2 19.718V9.282c0-.557.065-.892.252-1.242.18-.337.45-.608.788-.788C3.39 7.065 3.725 7 4.282 7h1.436zm.152 2H4.13c-.057.002-.09.003-.11.006l-.013.001-.001.012c-.003.02-.004.054-.005.111v10.74c0 .057.002.09.005.11l.001.012.012.002c.02.003.054.004.111.005l.152.001h1.436c.16 0 .228-.002.263-.006l.011-.002.002-.011A1.95 1.95 0 0 0 6 19.803V9.282c0-.16-.002-.228-.006-.263l-.002-.012-.011-.001A1.239 1.239 0 0 0 5.87 9zm13.848 4c.557 0 .892.065 1.242.252.337.18.608.45.788.788.187.35.252.685.252 1.242v4.436c0 .557-.065.892-.252 1.242-.18.337-.45.608-.788.788-.35.187-.685.252-1.242.252h-1.436c-.557 0-.892-.065-1.242-.252a1.909 1.909 0 0 1-.788-.788c-.187-.35-.252-.685-.252-1.242v-4.436c0-.557.065-.892.252-1.242.18-.337.45-.608.788-.788.35-.187.685-.252 1.242-.252h1.436zm.152 2h-1.74c-.057.002-.09.003-.11.006l-.013.001-.001.012c-.003.02-.004.054-.005.111v4.74c0 .057.002.09.005.11l.001.012.012.002c.028.003.077.005.178.006h1.521c.16 0 .228-.002.263-.006l.011-.002.002-.011a1.95 1.95 0 0 0 .006-.178v-4.521c0-.16-.002-.228-.006-.263l-.002-.012-.011-.001A1.239 1.239 0 0 0 19.87 15zM12.718 3c.557 0 .892.065 1.242.252.337.18.608.45.788.788.187.35.252.685.252 1.242v14.436c0 .557-.065.892-.252 1.242-.18.337-.45.608-.788.788-.35.187-.685.252-1.242.252h-1.436c-.557 0-.892-.065-1.242-.252a1.909 1.909 0 0 1-.788-.788C9.065 20.61 9 20.275 9 19.718V5.282c0-.557.065-.892.252-1.242.18-.337.45-.608.788-.788.35-.187.685-.252 1.242-.252h1.436zm-1.436 2c-.16 0-.228.002-.263.006l-.012.001-.001.012c-.003.02-.004.054-.005.111v14.74c0 .057.002.09.005.11l.001.012.012.002c.028.003.077.005.178.006h1.521c.16 0 .228-.002.263-.006l.011-.002.002-.011a1.95 1.95 0 0 0 .006-.178V5.282c0-.16-.002-.228-.006-.263l-.002-.012-.011-.001A1.239 1.239 0 0 0 12.87 5L12.718 5h-1.436z" fill="#FFF" fill-rule="nonzero" opacity=".5"/>
</svg>
